X: 407
T:Mout me fu grief/Robin m'amie/Portare
C:Adam de la Halle
B:Montpellier Codex 192
F:https://archive.org/details/oeuvrescompltes00cousgoog/page/n508
Z:Ali Corbin <ali.corbin:gmail.com>
M:3/4
L:1/4
Q:1/4=130
K:F Lydian
%
%%MIDI program 1       42 Cello
%%MIDI program 2       72 piccolo
%%MIDI program 3       70 bassoon
V:1 clef=treble
V:2 clef=treble
V:3 clef=treble-8 middle=B,
%%%%sysstaffsep    22.00pt
%%%%%%%%%%%%%%%%%%%%%%%%%%%%% triplum %%%%%%%%%%%%%%%%%%%%%%%%%%%
[V:1]
     G   G  A|(3:2:2B/    c  B  A|(3:2:2G/   G  E  F|G  F  D|(3:2:2E/  E   D   C |
w: Mout me fu      grief li dé-par-     tir de ma-mi-e-te La       jo-lie au cler 
   B, z2|E (3:2:2^F/    G     F | E (3F/E/D/ C|D z2| (3:2:2c/  c  B  A |
w:vis.  Qui      est blanche  et ver- mel-**le-te,         Co-me ro-se  
   G   F  A |(3:2:2G/   G  A    B| c z2|(3:2:2G/   G   A    B |
w:par de-sus      lis, Ce m'est a-vis.       Son très dous res 
   A  G    F|  E   A2| G   F    E |  G ^F   G|  A z2|
w:Mi fait fre-mir, Et  si oell vair ri-ans lan-guir. 
%%%%%%%%%%%%%%%%%%%%%%%%%%%%%%%%%%%%%%%%%%%%%%%%%%%%%%%%%%%%%%%%%
   ^F ((3:2:2D/CD) | E   G2| A (BA)| G z2|  c    B   A|
w: Ha       diex!** Com-man la lais-*sai!  Blan-che-te 
  (3:2:2G/   G   E    D|(3:2:2G/    G    A    B | G z2| (3:2:2c/ c   B (3B/A/G/| A   G   G |
w:    co-   me flour de      lis, Quant vous ver-rai!        Da-me  de   va-** lour Ver-mel-
  ^F (3:2:2D/ C   D | E  ((3:2:4F/GFG/)| E    A    B|((3G/F/G/) E   F  |G2 z||
w:le       co-me rose en        mai,*** Pour vous sui   en**  grant do-lour.  
%%%%%%%%%%%%%%%%%%%%%%%%%%%%% duplum %%%%%%%%%%%%%%%%%%%%%%%%%%%%
[V:2]
   C (DE)|(3E/D/C/ B,2| C  (ED)| C z2| E  G2|
w: Ro-bin*  m'ai-**me, Ro- bin* m'a.  Ro-bin 
   ^F (FG)| E ((3:2:2D/CD)| E E2 |D (ED)|C z2|
w:m'a  de-*man-***         dé-e, se m'a-*ra.  
    C (DE)|  C B,2 |C (DE)|  C ((3:2:2D/CB,)|
w: Ro-bin* m'a-cha- ta cor-*roi-      e,**   
   C (DE)| C  B,2|C  (DE)|C ((3:2:2B,/CD)|E    G2|
w: et au-*mon-iè- re de-*soi-      e**   Pour-quoi
%%%%%%%%%%%%%%%%%%%%%%%%%%%%%%%%%%%%%%%%%%%%%%%%%%%%%%%%%%%%%%%%%
    ^F (FG)|  E ((3:2:2D/CD)| E    E2| D  (ED)| C z2|
w: donc ne*  l'a-      me-** roie, A  leur i-*  va.  
   C (DE)|  C   D2|  C (ED)|C z2| E G2 |
w: Ro-bin* m'ai-me, Ro-bin* m'a. Ro-bin 
   ^F  (FG)| E((3:2:2D/CD)|E  E2|D (ED)|C2 z||
w: m'a  de-*man-***        dé-e, se m'a-*ra.
%%%%%%%%%%%%%%%%%%%%%%%%%%%%% tenor %%%%%%%%%%%%%%%%%%%%%%%%%%%%%
[V:3]
  (CB,A,)|(CD2)|(CA,2)|(CB,G,)|A,G,2|
w: Portare. ~ ~ ~ ~ ~ ~ ~ ~ ~ ~ ~
^F, z2|A, ((3:2:2G,/CB,)|A, A,2|G, z2|C z2|
(CB,A,)|  (CD2)|(CA,2)|C z2|
(CB,G,)|(CD2)|(CA,2)|(CB,G,)|(A,G,2)|
^F, z2|A, ((3:2:2G,/CB,)|A, A,2|G, z2|  C z2|
(CB,A,)|(CD2)|(CA,2)|(CB,G,)|(A,G,2)|
^F, z2|A, ((3:2:2G,/CB,)|A, A,2|G, z2|C2 z||
%
W:
W:Mout me fu grief li départir 
W:De m'amiete la jolie au cler vis. 
W:Qui est blanche et vermellete, 
W:Come rose par desus lis, 
W: Ce m'est avis. 
W: Son très dous res 
W: Mi fait fremir, 
W:Et si oell vair rians languir. 
W:Ha diex! Comman la laissai! 
W:Blanchete come flour de lis, 
W: Quant vous verrai! 
W: Dame de valour 
W:Vermelle come rose en mai, 
W:Pour vous sui en grant dolour.
W:
W:
W: Robin m'aime, 
W: Robin m'a. 
W:Robin m'a demandée, 
W: Se m'ara. 
W:Robin m'achata corroie, 
W:Et aumonière de soie 
W:Pourquoi donc ne l'ameroie, 
W: A leur iva.
W: Robin m'aime, 
W: Robin m'a. 
W:Robin m'a demandée, 
W: Se m'ara.
W:
W:
W:
W:
W:Portare.
